assets/icons/uE00D-delete.svg

<svg xmlns="http://www.w3.org/2000/svg" width="896" height="1232" viewBox="0 0 896 1232"><path d="M622 406l-98 98 98 98-76 76-98-98-99 98-75-76 98-98-98-98 75-76 99 98 98-98zM448 56q185 0 316.5 131.5T896 504 764.5 820.5 448 952 131.5 820.5 0 504t131.5-316.5T448 56zm0 840q162 0 277-114.5T840 504q0-162-115-277T448 112q-163 0-277.5 115T56 504q0 163 114.5 277.5T448 896z"/></svg>

<?xml version="1.0" encoding="UTF-8" standalone="no"?><svg   xmlns:svg="http://www.w3.org/2000/svg"   xmlns="http://www.w3.org/2000/svg"   version="1.1"   width="896"   height="1232"   viewBox="0 0 896 1232">  <path     d="M622 406L524 504L622 602L546 678L448 580L349 678L274 602L372 504L274 406L349 330L448 428L546 330zM448 56Q633 56 764.5 187.5T896 504T764.5 820.5T448 952T131.5 820.5T0 504T131.5 187.5T448 56zM448 896Q610 896 725 781.5T840 504Q840 342 725 227T448 112Q285 112 170.5 227T56 504Q56 667 170.5 781.5T448 896z"     id="icon26" /></svg>
